Origami/64x64/apps/unity-tweak-tool.svg

<svg width="64" height="64" version="1" xmlns="http://www.w3.org/2000/svg">
 <circle cx="32" cy="33" r="28" style="opacity:.2"/>
 <circle cx="32" cy="32" r="28" style="fill:#a43b84"/>
 <path d="m20 35.8s0 11.2 9 11.2h15v-28h-6v21h-7.5c-4.5 0-4.5-5.6-4.5-5.6v-15.4h-6z" style="opacity:.2"/>
 <path d="m20 34.8s0 11.2 9 11.2h15v-28h-6v21h-7.5c-4.5 0-4.5-5.6-4.5-5.6v-15.4h-6z" style="fill:#ffffff"/>
 <path d="M 32,4 A 28,28 0 0 0 4,32 28,28 0 0 0 4.0215,32.586 28,28 0 0 1 32,5 28,28 0 0 1 59.979,32.414 28,28 0 0 0 60,32 28,28 0 0 0 32,4 Z" style="fill:#ffffff;opacity:.1"/>
 <circle cx="48" cy="47" r="16" style="opacity:.2"/>
 <circle cx="48" cy="46" r="16" style="fill:#42a1cd"/>
 <path d="m45.92862 38-0.1764 2.1071a6.2858 6.2855014 0 0 0 -1.83704 1.062469l-1.91518-0.901757-2 3.464036 1.73882 1.207542a6.2858 6.2855014 0 0 0 -0.096 1.06021 6.2858 6.2855014 0 0 0 0.0914 1.064689l-1.734 1.203943 2 3.464036 1.91072-0.899518a6.2858 6.2855014 0 0 0 1.8415 1.05575l0.1764 2.1115h4l0.1764-2.1071a6.2858 6.2855014 0 0 0 1.83708 -1.062469l1.91516 0.901757 2-3.464036-1.73884-1.207542a6.2858 6.2855014 0 0 0 0.096 -1.06021 6.2858 6.2855014 0 0 0 -0.0914 -1.064689l1.73438-1.203063-2-3.464036-1.91072 0.899518a6.2858 6.2855014 0 0 0 -1.842 -1.05595l-0.176-2.1119h-4zm2 5.714129a2.2858 2.2856914 0 0 1 2.286 2.285891 2.2858 2.2856914 0 0 1 -2.286 2.285891 2.2858 2.2856914 0 0 1 -2.286 -2.285891 2.2858 2.2856914 0 0 1 2.286 -2.285891z" style="fill:#ffffff"/>
</svg>

<svg xmlns="http://www.w3.org/2000/svg" width="64" height="64" version="1">
 <circle style="opacity:0.2" cx="32" cy="33" r="28"/>
 <circle style="fill:#a43b84" cx="32" cy="32" r="28"/>
 <path style="opacity:0.2" d="M 20,35.8 C 20,35.8 20,47 29,47 H 44 V 19 H 38 V 40 H 30.5 C 26,40 26,34.4 26,34.4 V 19 H 20 Z"/>
 <path style="fill:#ffffff" d="M 20,34.8 C 20,34.8 20,46 29,46 H 44 V 18 H 38 V 39 H 30.5 C 26,39 26,33.4 26,33.4 V 18 H 20 Z"/>
 <path style="opacity:0.1;fill:#ffffff" d="M 32,4 A 28,28 0 0 0 4,32 28,28 0 0 0 4.0215,32.586 28,28 0 0 1 32,5 28,28 0 0 1 59.979,32.414 28,28 0 0 0 60,32 28,28 0 0 0 32,4 Z"/>
 <circle style="opacity:0.2" cx="48" cy="47" r="16"/>
 <circle style="fill:#42a1cd" cx="48" cy="46" r="16"/>
 <path style="fill:#ffffff" d="m 45.92862,38 -0.1764,2.1071 a 6.2858,6.2855014 0 0 0 -1.83704,1.062469 L 42,40.267812 l -2,3.464036 1.73882,1.207542 a 6.2858,6.2855014 0 0 0 -0.096,1.06021 6.2858,6.2855014 0 0 0 0.0914,1.064689 l -1.734,1.203943 2,3.464036 1.91072,-0.899518 a 6.2858,6.2855014 0 0 0 1.8415,1.05575 l 0.1764,2.1115 4,0 0.1764,-2.1071 a 6.2858,6.2855014 0 0 0 1.83708,-1.062469 l 1.91516,0.901757 2,-3.464036 -1.73884,-1.207542 a 6.2858,6.2855014 0 0 0 0.096,-1.06021 6.2858,6.2855014 0 0 0 -0.0914,-1.064689 l 1.73438,-1.203063 -2,-3.464036 -1.91072,0.899518 a 6.2858,6.2855014 0 0 0 -1.842,-1.05595 l -0.176,-2.1119 -4,0 z m 2,5.714129 a 2.2858,2.2856914 0 0 1 2.286,2.285891 2.2858,2.2856914 0 0 1 -2.286,2.285891 2.2858,2.2856914 0 0 1 -2.286,-2.285891 2.2858,2.2856914 0 0 1 2.286,-2.285891 z"/>
</svg>
